X: 48
T: String Quartet No. 12 in E\b Major, Op. 127 mvt 3
C: Ludwig van Beethoven
%%abc-version 2.0
%%abcx-abcm2ps-target-version 5.9.1 (29 Sep 2008)
%%abc-creator hum2abc beta
%%abcx-conversion-date 2021/01/27 10:01:12
%%abc-edited-by Craig Stuart Sapp
%%abcx-initial-encoding-date 2004/09/06/
%%gracespace 0 6 6
%%humdrum-veritas 679035026
%%humdrum-veritas-data 2114845712
%%linebreak <none>
%%barnumbers 0
%%setbarnb 412
L: 1/8
M: 3/4
N: Derived from quartet12-3.krn
Q: "Scherzando vivace - Presto" 1/4=152
%%staves [1 2 3 4]
V: 1 clef=treble
V: 2 clef=treble
V: 3 clef=alto
V: 4 clef=bass
K: Eb
[V:1] [G,Ee] z [B,Fd] z [B,Ge] z | 
[V:2] [GB] z [FB] z [GB] z | 
[V:3] [B,E] z [B,D] z [B,E] z | 
[V:4] E, z B,, z E, z | 
[V:1] [D2B2f2]z2z2 ]|:  
[V:2] [D2B2]z2z2 ]|:  
[V:3] [B,2D2]z2z2 ]|:  
[V:4] B,,2z> B,, C, z/ E,/ ]|:  
[V:1] z6 | 
[V:2] z6 | 
[V:3] z6 | 
[V:4] D,2z> D, E, z/ G,/ | 
[V:1] z6 | 
[V:2] z6 | 
[V:3] z6 | 
[V:4] F,2z> F, G, z/ B,/ | 
[V:1] z6 | 
[V:2] z6 | 
[V:3] z6 | 
[V:4] =A,4B,2 | 
[V:1] z6 | 
[V:2] z6 | 
[V:3] z2z> c B z/ G/ | 
[V:4] C2D,2=E,2 | 
[V:1] z6 | 
[V:2] z6 | 
[V:3] A2z> A G z/ =E/ | 
[V:4] F,4G,2 | 
[V:1] z6 | 
[V:2] z6 | 
[V:3] F2z> F E z/ C/ | 
[V:4] A,4=A,2 | 
[V:1] z6 | 
[V:2] z6 | 
[V:3] D4C2 | 
[V:4] B,4E2 | 
[V:1] z6 | 
[V:2] B4A2 | 
[V:3] B,2z2z2 | 
[V:4] D2z2z2 | 
[V:1] z6 | 
[V:2] G2z2z2 | 
[V:3] E,4D,2 | 
[V:4] G4F2 | 
[V:1] z6 | 
[V:2] e4=A2 | 
[V:3] C,2z2z2 | 
[V:4] E2z2z2 | 
[V:1] z6 | 
[V:2] B2z2z2 | 
[V:3] F,4E,2 | 
[V:4] D,4C,2 | 
[V:1] b4a2 | 
[V:2] d4f2 | 
[V:3] D,2z2z2 | 
[V:4] B,,2z2z2 | 
[V:1] g2z2z2 | 
[V:2] G4B2 | 
[V:3] G,4F,2 | 
[V:4] E,,4D,,2 | 
[V:1] e'4d'2 | 
[V:2] =A2_A> E F z/ A/ | 
[V:3] E,2A,3F, | 
[V:4] C,, z/ C,/_C,2B,,2 | 
[V:1] e'2z2z2 | 
[V:2] [G,2G2]z> G A z/ c/ | 
[V:3] E,2E2F2 | 
[V:4] E, z/ E,/E2z2 | 
[V:1] z6 | 
[V:2] B2z> B c z/ e/ | 
[V:3] G4A2 | 
[V:4] z> E,E2z2 | 
[V:1] z6 | 
[V:2] d4e2 | 
[V:3] A4G2 | 
[V:4] F z/ F,/ F B, E z/ B,/ | 
[V:1] z2z> f' e' z/ c'/ | 
[V:2] f2F2G2 | 
[V:3] F2D2E2 | 
[V:4] D z/ B,,/B,2z2 | 
[V:1] d'2z> d' c' z/ =a/ | 
[V:2] A4=A2 | 
[V:3] F4E2 | 
[V:4] B, z/ B,,/B,2C2 | 
[V:1] b2z> b a z/ f/ | 
[V:2] B6- | 
[V:3] F2=E2F A | 
[V:4] _D4=D2 | 
[V:1] g4f2 | 
[V:2] B6- | 
[V:3] G2E2D2 | 
[V:4] E2E, z/ B,/ A, z/ F,/ | 
[V:1] e2z> b a z/ f/ | 
[V:2] B2B2d2 | 
[V:3] E2B,4- | 
[V:4] G,4F,2 | 
[V:1] g4f2 | 
[V:2] e2B4- | 
[V:3] B,2E2D2 | 
[V:4] E,2z> B, A, z/ F,/ | 
[V:1] e4d2 | 
[V:2] B4=B2 | 
[V:3] E2G2F2 | 
[V:4] G,2z> G,, G, z/ G,/ | 
[V:1] c2f2g2 | 
[V:2] C2c2=B2 | 
[V:3] F2C2[G,2D2] | 
[V:4] A,2A,2G,2 | 
[V:1] z2e2z2 | 
[V:2] z2c2z2 | 
[V:3] z2G2z2 | 
[V:4] z2C2z2 | 
[V:1] z2f2z2 | 
[V:2] z2c2z2 | 
[V:3] z2=A2z2 | 
[V:4] z2F,2z2 | 
[V:1] d2f2g2 | 
[V:2] F2d2d2 | 
[V:3] D C =B, D C B, | 
[V:4] B, A, G, =B, =A, G, | 
[V:1] z> ee'2z2 | 
[V:2] e G E G F E | 
[V:3] E c e c d e | 
[V:4] C E C E D C | 
[V:1] z> ff'2z2 | 
[V:2] c e c e d c & F F F F F F | 
[V:3] E C E C D E | 
[V:4] =A, C A, C B, A, | 
[V:1] _g z/ f/ =g z/ f/ =a z/ f/ | 
[V:2] c B =A G F E | 
[V:3] F F E D C B, | 
[V:4] E D C B, =A, G, | 
[V:1] b z/ f/ c' z/ f/ d' z/ f/ | 
[V:2] D C B, =A, G, F | 
[V:3] =A, G, F, E, D, C, | 
[V:4] F, E, D, C, B,, =A,, | 
[V:1] e' z/ f/ e' z/ f'/ g' z/ =a'/ |[1 
[V:2] E E E E e e | 
[V:3] B, =A, A, C C C | 
[V:4] G,, F,, F F, F, F,, | 
[V:1] b'2B, zz2 :|][2 
[V:2] d2B, zz2 :|]  
[V:3] B,2B2z2 :|]  
[V:4] B,,2B, z/ B,,/ C, z/ E,/ :|]  
[V:1] b'2B, z/ =B,/ C z/ E/ ]|: 
[V:2] d2B, z/ =B,/ C z/ E/ ]|:  
[V:3] B,2B z/ =B,/ C z/ E/ ]|:  
[V:4] B,,2B, z/ =B,,/ C, z/ E,/ ]|:  
[V:1] C z/ D/ F z/ E/ F z/ A/ | 
[V:2] C z/ D/ F z/ E/ F z/ A/ | 
[V:3] C, z/ D,/ F, z/ E,/ F, z/ A,/ | 
[V:4] C,, z/ D,,/ F,, z/ E,,/ F,, z/ A,,/ | 
[V:1] G z/ =A/ c z/ =B/ c z/ e/ | 
[V:2] G z/ =A/ c z/ =B/ c z/ e/ | 
[V:3] G, z/ =A,/ C z/ =B,/ C z/ E/ | 
[V:4] G,, z/ =A,,/ C, z/ =B,,/ C, z/ E,/ | 
[V:1] d z/ e/ f z/ =e/ f z/ ^f/ | 
[V:2] d z/ e/ f z/ =e/ f z/ ^F/ | 
[V:3] D z/ E/ F z/ =E/ F z/ ^F/ | 
[V:4] D, z/ E,/ F, z/ =E,/ F, z/ ^F,/ | 
[V:1] g z/ g/ g' z/ g/ f z/ d/ | 
[V:2] G z/ G/ g zz2 | 
[V:3] G, z/ G,/ G zz2 | 
[V:4] G,, z/ G,,/ G, =B,, D, G, | 
[V:1] e2z> e d z/ =B/ | 
[V:2] z> Ee2z2 | 
[V:3] z6 | 
[V:4] C, G, C G, =B, G, | 
[V:1] c2z> a g z/ e/ | 
[V:2] z6 | 
[V:3] z> G,C,2z2 | 
[V:4] C, G, E G, C, G, | 
[V:1] f2z> f e z/ c/ | 
[V:2] z> Gf2z2 | 
[V:3] z6 | 
[V:4] =B,, G, D G, C, G, | 
[V:1] d2z> g f z/ d/ | 
[V:2] z6 | 
[V:3] z> DG,2z2 | 
[V:4] =B,, G, D G, B,, G, | 
[V:1] e2z> e d z/ =B/ | 
[V:2] z> Ge2z2 | 
[V:3] z6 | 
[V:4] C, G, C G, F, G, | 
[V:1] c2z2z2 | 
[V:2] z2z> G B z/ c/ | 
[V:3] z> C G z/ C,/ G, G, | 
[V:4] E, G, =E, G, C, E, | 
[V:1] z> cc'2z2 | 
[V:2] A2z> A B z/ _d/ | 
[V:3] F, C A C F, C | 
[V:4] F,,2z2z2 | 
[V:1] z6 | 
[V:2] c2z> =E F z/ A/ | 
[V:3] F, C A C F, C | 
[V:4] z> F,C2z2 | 
[V:1] z> cc'2z2 | 
[V:2] G2z> G A z/ c/ | 
[V:3] =E, C G C F, C | 
[V:4] z6 | 
[V:1] z> c a A C A | 
[V:2] B z/ c/ A z/ A/ B z/ c/ | 
[V:3] =E, C F, z/ F/ E z/ C/ | 
[V:4] z> C, F, z/ A,/ _G, z/ E,/ | 
[V:1] _D A f A C A | 
[V:2] _d2z> d e z/ _g/ | 
[V:3] A,2z> A, _G, z/ E,/ | 
[V:4] F,2z> F, E, z/ C,/ | 
[V:1] _D A f A D A | 
[V:2] f2z> c _d z/ f/ | 
[V:3] F,2z> _G F z/ _D/ | 
[V:4] _D,2z> B, A, z/ F,/ | 
[V:1] C A e A _D A | 
[V:2] e2z> e f z/ a/ | 
[V:3] [A,2A2]z> C _D z/ A,/ | 
[V:4] _G,2z> G, F, z/ _D,/ | 
[V:1] C A _g z/ a/ g z/ e/ | 
[V:2] _g2z2z2 | 
[V:3] A,2z> C, _D, z/ A,/ | 
[V:4] E,2z> A,, B,, z/ C,/ | 
[V:1] f2z> f e z/ c/ | 
[V:2] z> A,A2z2 | 
[V:3] A,2z> F, _G, z/ A,/ | 
[V:4] _D,2z> D, E, z/ _G,/ | 
[V:1] d2z> b a z/ f/ | 
[V:2] z> B,B2z2 | 
[V:3] A,2z> E, F, z/ A,/ | 
[V:4] F,2z> C, D, z/ F,/ | 
[V:1] _g2z> g f z/ d/ | 
[V:2] z> B,B2z2 | 
[V:3] _G,2z> G, A, z/ B,/ | 
[V:4] E,2z> E, F, z/ A,/ | 
[V:1] e z/ _c'/ b z/ _g/ a z/ a/ | 
[V:2] z2z> B _c z/ c/ | 
[V:3] B, z/ F,/ _G, z/ B,/ A, z/ A,/ | 
[V:4] _G, z/ D,/ E, z/ G,/ F, z/ F,/ | 
[V:1] _g z/ e/ f z/ _d'/ _c' z/ a/ | 
[V:2] B z/ _G/ A z/ _d/ d z/ _c/ | 
[V:3] B, z/ _D/ _C z/ _G,/ A, z/ D/ | 
[V:4] _G, z/ B,/ A, z/ E,/ F, z/ F,/ | 
[V:1] b z/ _g/ b z/ g/ b z/ g/ | 
[V:2] B z/ _d/ B z/ d/ B z/ d/ | 
[V:3] _D z/ _G/ D z/ G/ D z/ G/ | 
[V:4] _G, z/ B,/ G, z/ B,/ G, z/ B,/ | 
[V:1] _c' z/ _g/ c' z/ g/ c' z/ g/ | 
[V:2] _G z/ _c/ G z/ c/ G z/ c/ | 
[V:3] _C z/ E/ C z/ E/ C z/ E/ | 
[V:4] E, z/ _G,/ E, z/ G,/ E, z/ G,/ | 
[V:1] b z/ _g/ b z/ g/ b z/ g/ | 
[V:2] _G z/ B/ G z/ B/ G z/ B/ | 
[V:3] B, z/ _D/ B, z/ D/ B, z/ D/ | 
[V:4] _D, z/ _G,/ D, z/ G,/ D, z/ G,/ | 
[V:1] a z/ f/ a z/ f/ a z/ f/ | 
[V:2] F z/ _d/ F z/ d/ F z/ d/ | 
[V:3] A, z/ F/ A, z/ F/ A, z/ F/ | 
[V:4] _D, z/ A,/ D, z/ A,/ D, z/ A,/ | 
[V:1] =a z/ ^f/ a z/ f/ a z/ f/ | 
[V:2] =A z/ ^c/ A z/ c/ A z/ c/ | 
[V:3] =A, z/ ^F/ A, z/ F/ A, z/ F/ | 
[V:4] ^F, z/ =A,/ F, z/ A,/ F, z/ A,/ | 
[V:1] =a z/ ^f/ a z/ f/ a z/ f/ | 
[V:2] =A z/ d/ A z/ d/ A z/ d/ | 
[V:3] =A, z/ ^F/ A, z/ F/ A, z/ F/ | 
[V:4] ^F, z/ =A,/ F, z/ A,/ F, z/ A,/ | 
[V:1] d' z/ D/ =E z/ G/ ^F z/ G/ | 
[V:2] [Dd] z/ D/ =E z/ G/ ^F z/ G/ | 
[V:3] [D,D] z/ D,/ =E, z/ G,/ ^F, z/ G,/ | 
[V:4] D, z/ D,,/ =E,, z/ G,,/ ^F,, z/ G,,/ | 
[V:1] B z/ =A/ B z/ d/ c z/ d/ | 
[V:2] B z/ =A/ B z/ d/ c z/ d/ | 
[V:3] B, z/ =A,/ B, z/ D/ C z/ D/ | 
[V:4] B,, z/ =A,,/ B,, z/ D,/ C, z/ D,/ | 
[V:1] e z/ d/ =e z/ g/ ^f z/ g/ | 
[V:2] e z/ d/ =e z/ g/ ^f z/ g/ | 
[V:3] E z/ D/ =E z/ G/ ^F z/ G/ | 
[V:4] E, z/ D,/ =E, z/ G,/ ^F, z/ G,/ | 
[V:1] b z/ =a/ c' z/ d'/e'2 | 
[V:2] B z/ =A/ c z/ d/e2 | 
[V:3] B z/ =A/ c z/ d/e2 | 
[V:4] B, z/ =A,/ C z/ D/E2 | 
[V:1] [M:2/4]z4 | 
[V:2] [M:2/4]z4 | 
[V:3] [M:2/4]z2C,2 | 
[V:4] [M:2/4]z2C,,2 | 
[V:1] z4 | 
[V:2] z4 | 
[V:3] D,2^F,2 | 
[V:4] D,,2^F,,2 | 
[V:1] z4 | 
[V:2] z4 | 
[V:3] G,2B,2 | 
[V:4] G,,2B,,2 | 
[V:1] z4 | 
[V:2] z4 | 
[V:3] =A, B,/ A,/ G, B, | 
[V:4] =A,, B,,/ A,,/ G,, B,, | 
[V:1] z4 | 
[V:2] z4 | 
[V:3] E D ^F G | 
[V:4] E, D, ^F, G, | 
[V:1] [M:3/4]z2z> e' d' z/ =b/ | 
[V:2] [M:3/4][^F6=A6]- | 
[V:3] [M:3/4]E6- | 
[V:4] [M:3/4]C6- | 
[V:1] c'2z2z2 | 
[V:2] [F2=A2]z> =B, D z/ E/ | 
[V:3] E2z2z2 | 
[V:4] C2z2z2 | 
[V:1] z6 | 
[V:2] F2z2z2 | 
[V:3] z2G,2=B,2 | 
[V:4] z2G,,2=B,,2 | 
[V:1] [M:2/4]z4 | 
[V:2] [M:2/4]z4 | 
[V:3] [M:2/4]C,2E,2 | 
[V:4] [M:2/4]C,,2E,,2 | 
[V:1] z4 | 
[V:2] z4 | 
[V:3] D, E,/ D,/ C, E, | 
[V:4] D,, E,,/ D,,/ C,, E,, | 
[V:1] z4 | 
[V:2] z4 | 
[V:3] A, G, =B, C | 
[V:4] A,, G,, G, F, | 
[V:1] [M:3/4]z2z> d' c' z/ g/ | 
[V:2] [M:3/4]z6 | 
[V:3] [M:3/4][C6G6]- | 
[V:4] [M:3/4]=E,6- | 
[V:1] b2z2z2 | 
[V:2] z2z> C G z/ A/ | 
[V:3] [C6G6]- | 
[V:4] E,6 | 
[V:1] z6 | 
[V:2] B2z2z2 | 
[V:3] [C3G3]z/ =E,/ G, z/ A,/ | 
[V:4] =E,,4_D,,2 | 
[V:1] z2z> c' b z/ g/ | 
[V:2] z2z> G c z/ =e/ | 
[V:3] B,2z> =E G z/ c/ | 
[V:4] C,,2z2G,,2 | 
[V:1] a2z2z2 | 
[V:2] f2z2z2 | 
[V:3] c2z> C, F, z/ G,/ | 
[V:4] F,,4_D,,2 | 
[V:1] z2z> a g z/ =e/ | 
[V:2] z2z> F =E z/ G/ | 
[V:3] A,2z> C, _D, z/ _D/ | 
[V:4] C,,4B,,2 | 
[V:1] f2z> f' e' z/ c'/ | 
[V:2] F2z> A, B, z/ B/ | 
[V:3] C2z> F, G, z/ E/ | 
[V:4] A,,4G,,2 | 
[V:1] d'2z> d' e' z/ e'/ | 
[V:2] B2z> B B z/ B/ | 
[V:3] A2z> A G z/ G/ | 
[V:4] F,,4E,,2 | 
[V:1] f' z/ f'/ e' z/ b/ a z/ f/ | 
[V:2] B z/ a/ g G A D | 
[V:3] F z/ B/ B B, D, B, | 
[V:4] D,, z/ D,,/ E,, z/ E,/ F, z/ A,/ | 
[V:1] e z/ e/e'2z2 | 
[V:2] E2z> Ee2 | 
[V:3] E, B, [E,G,] E, F, A, | 
[V:4] G,2z> G, A, z/ C/ | 
[V:1] z> ee'2z2 | 
[V:2] z2z> Ee2 | 
[V:3] G, [GB] G, G, A, =A, | 
[V:4] B,2z> B, C z/ E/ | 
[V:1] z> Bb2z2 | 
[V:2] z2z> B,B2 | 
[V:3] B, F F, B, G, B, | 
[V:4] D4E2 | 
[V:1] z> Bb2z2 | 
[V:2] z2z> f e z/ c/ | 
[V:3] A, F, D, z/ G,/B2 | 
[V:4] F2z D, G, E, | 
[V:1] z> =A, B, z/ F/_G2 | 
[V:2] d2z> d c z/ =A/ | 
[V:3] z> F, D z/ D/E2 | 
[V:4] B,, B, F, B, E, B, | 
[V:1] z6 | 
[V:2] B2z> B A z/ F/ | 
[V:3] z> =E, F, z/ G,/A,2 | 
[V:4] _D, B, =D, B, F, B, | 
[V:1] z> =A B z/ e/d2 | 
[V:2] G4F2 | 
[V:3] z6 | 
[V:4] E, B, G, B, A, B, | 
[V:1] z2z> e f z/ a/ | 
[V:2] E2z E D d | 
[V:3] z> D E z/ G/ F z/ F/ | 
[V:4] G, B, E, B, B,, B, | 
[V:1] g2z> g a z/ c'/ | 
[V:2] E e E e F e | 
[V:3] [G,2G2]z> E,E2 | 
[V:4] E, z/ E,,/E,2z2 | 
[V:1] b2z> b c' z/ e'/ | 
[V:2] G e G e A G | 
[V:3] z2z> E,E2 | 
[V:4] z> E,,E,2z2 | 
[V:1] d'4e'2 | 
[V:2] F B F B G B | 
[V:3] z2z> B,B2 | 
[V:4] z> B,,B,2z2 | 
[V:1] f'2z2z2 | 
[V:2] A2z> A G z/ E/ | 
[V:3] z2z> B,B2 | 
[V:4] z> B,, B, z/ F,/ E, z/ C,/ | 
[V:1] z> c' d' z/ f'/e'2 | 
[V:2] F2z> B c z/ e/ | 
[V:3] z> F,F2z2 | 
[V:4] D,2z> D, C, z/ =A,,/ | 
[V:1] z> =a b z/ d'/c'2 | 
[V:2] d z/ D/d2z2 | 
[V:3] z2z> G, A, z/ C/ | 
[V:4] B,,2z> B,, A,, z/ F,,/ | 
[V:1] z> d e z/ e/ f z/ a/ | 
[V:2] z> B, B z/ B,/ B z/ B,/ | 
[V:3] B,2E,2D,2 | 
[V:4] G,,4F,,2 | 
[V:1] g4a2 | 
[V:2] B z/ B,/ B z/ B,/ B z/ B,/ | 
[V:3] E,4F,2 | 
[V:4] E,,2z> B,, A,, z/ F,,/ | 
[V:1] b2z> e ^f z/ a/ | 
[V:2] B z/ B,/ B z/ B,/ B z/ B,/ | 
[V:3] E,4D,2 | 
[V:4] G,,4F,,2 | 
[V:1] g4a2 | 
[V:2] B z/ B,/ B z/ B,/ B z/ B,/ | 
[V:3] E,4F,2 | 
[V:4] E,,2z> B,, A,, z/ F,,/ | 
[V:1] b4b2 | 
[V:2] B z/ G,/ B z/ G,/ B z/ G,/ | 
[V:3] E,2G,2D2 | 
[V:4] G,,2z> G, F, z/ D,/ | 
[V:1] c'2_d'2e'2 | 
[V:2] G z/ e/ _d z/ d/ c z/ c/ | 
[V:3] E z/ E/ E z/ E/ E z/ C/ | 
[V:4] C, z/ C/ B, z/ B,/ A, z/ A,/ | 
[V:1] f'2^f'2g'2 | 
[V:2] c2c'2[d2=b2] | 
[V:3] C2C2D2 | 
[V:4] A,2A,2G,2 | 
[V:1] z2e'2z2 | 
[V:2] z2g2z2 | 
[V:3] z2c2z2 | 
[V:4] z6 | 
[V:1] z2f'2z2 | 
[V:2] z2[=A2f2]z2 | 
[V:3] z2E2z2 | 
[V:4] z2C2z2 | 
[V:1] d'2b2c'2 | 
[V:2] [B2f2]B2[B2g2] | 
[V:3] D2F2G2 | 
[V:4] B,2D2=E2 | 
[V:1] z2a2z2 | 
[V:2] z2c2z2 | 
[V:3] z2F2z2 | 
[V:4] z2F2z2 | 
[V:1] z2b2z2 | 
[V:2] z2[F2d2]z2 | 
[V:3] z2[B,2D2]z2 | 
[V:4] z2B,2z2 | 
[V:1] g2b2c'2 | 
[V:2] G F E G F E | 
[V:3] z6 | 
[V:4] E _D C =E =D C | 
[V:1] z> Aa2z2 | 
[V:2] C B, A, C B, A, | 
[V:3] A, G, F, A, G, F, | 
[V:4] z6 | 
[V:1] z> Bb2z2 | 
[V:2] f e d f e d | 
[V:3] B B B B B B | 
[V:4] D C B, D C B, | 
[V:1] _c' z/ b/ =c' z/ b/ d' z/ b/ | 
[V:2] f d d c B A | 
[V:3] A F F E D F | 
[V:4] B, B, B, B, B, B, | 
[V:1] e' z/ b/ f' z/ b/ g' z/ b/ | 
[V:2] G F E D C B, | 
[V:3] E D C B, A, G, | 
[V:4] B, B,, B,, B,, B,, B,, | 
[V:1] a' z/ B/ a z/ b/ c' z/ d'/ |[1 
[V:2] A, G, F F E B, | 
[V:3] F, E, D, C, B, A, | 
[V:4] B,, B,, B,, A,, G,, F,, | 
[V:1] e'2e z/ =B,/ C z/ E/ :|][2 
[V:2] B,2[G,E] z/ =B,/ C z/ E/ :|]  
[V:3] [E,2G,2]E z/ =B,/ C z/ E,/ :|]  
[V:4] E,,2E, z/ =B,,/ C, z/ E,/ :|]  
[V:1] e'2e z/ e'/ d' z/ =b/ | 
[V:2] B,2E z/ e/ d z/ =B/ | 
[V:3] G, z/ G,/ =A, z/ C/B,2 | 
[V:4] E,, z/ G,,/ =A,, z/ C,/B,,2 | 
[V:1] c'2c z/ c'/ b z/ g/ | 
[V:2] c2C z/ c/ B z/ G/ | 
[V:3] z> E, F, z/ A,/G,2 | 
[V:4] z> E,, F,, z/ A,,/G,,2 | 
[V:1] a2A z/ a/ g z/ e/ | 
[V:2] A2A, z/ A/ G z/ [B,/E/] | 
[V:3] z> C, D, z/ F,/ E, z/ G,/ | 
[V:4] z> C,, D,, z/ G,,/ E,, z/ E,/ | 
[V:1] f4e2 | 
[V:2] F z/ B/ B z/ B/ =A z/ A/ | 
[V:3] F,6 | 
[V:4] D,4C,2 | 
[V:1] d2z> a g z/ =e/ | 
[V:2] B z/ B,/ B, z/ B,/ B, z/ B,/ | 
[V:3] F,2z> D E z/ G/ | 
[V:4] B,,2z> F, E, z/ ^C,/ | 
[V:1] f4e2 | 
[V:2] B, z/ B/ B z/ B/ B z/ A/ | 
[V:3] F2F,4 | 
[V:4] D,4C,2 | 
[V:1] d2z> b a z/ ^f/ | 
[V:2] A z/ A/ A z/ A/ A z/ A/ | 
[V:3] F,2E, z/ E,/ F, z/ B,/ | 
[V:4] B,,2C,,2D,,2 | 
[V:1] g4f2 | 
[V:2] G z/ D/ E z/ G/ B z/ d/ | 
[V:3] B,4A,2 | 
[V:4] E,,6- | 
[V:1] e2z> b a z/ ^f/ | 
[V:2] e z/ F/ G z/ B/ E z/ B,/ | 
[V:3] G, z/ D,/ E, z/ G,/ C, z/ D,/ | 
[V:4] E,,6- | 
[V:1] g4f2 | 
[V:2] B,4A,2 | 
[V:3] E, z/ D,/ E, z/ G,/ B, z/ D/ | 
[V:4] E,,6- | 
[V:1] e4_d2 | 
[V:2] G, z/ F/ G z/ B/ A z/ B/ | 
[V:3] E z/ D,/ E, z/ F,/ F, z/ G,/ | 
[V:4] E,,6- | 
[V:1] c4_c2 | 
[V:2] c z/ E/ E z/ E/ F z/ D/ | 
[V:3] A, z/ C,/ C, z/ C,/ D, z/ F,/ | 
[V:4] E,,6- | 
[V:1] B4_c2 | 
[V:2] E z/ D/ E z/ G/ A z/ A/ | 
[V:3] G, z/ F,/ G, z/ E/ D z/ D/ | 
[V:4] E,,6- | 
[V:1] B4_C2 | 
[V:2] G z/ D/ E z/ G/ A z/ A/ | 
[V:3] E z/ F/ G z/ E/ D z/ D/ | 
[V:4] E,,6- | 
[V:1] B,4_C2 | 
[V:2] G z/ D/ E z/ G,/ A, z/ A,/ | 
[V:3] E z/ F,/ G, z/ E,/ D, z/ D,/ | 
[V:4] E,,6- | 
[V:1] B,2z> B B z/ B/ | 
[V:2] G,2z> G F z/ A/ | 
[V:3] E,2z> E F z/ F/ | 
[V:4] E,,2z> E ^D z/ B,/ | 
[V:1] B2B2z2 | 
[V:2] G2G2z2 | 
[V:3] E2E2z2 | 
[V:4] E2E2z2 | 
[V:1] z6 | 
[V:2] z2z> B B z/ [A/B/] | 
[V:3] z2z> G F z/ F/ | 
[V:4] z2z> E D z/ B,/ | 
[V:1] z6 | 
[V:2] [G2B2]B2z2 | 
[V:3] G2G2z2 | 
[V:4] E2E2z2 | 
[V:1] z6 | 
[V:2] z2B2z2 | 
[V:3] z2G2z2 | 
[V:4] z2E2z2 | 
[V:1] z6 | 
[V:2] z2B2z2 | 
[V:3] z2_G2z2 | 
[V:4] z2E2z2 | 
[V:1] z6 | 
[V:2] z2B2z2 | 
[V:3] z2_G2z2 | 
[V:4] z2E2z2 | 
[V:1] z6 | 
[V:2] z2B2B2 | 
[V:3] z2_G2G2 | 
[V:4] z2E2E2 | 
[V:1] z6 | 
[V:2] B2B2B2 | 
[V:3] _G2G2G2 | 
[V:4] E2E2E2 | 
[V:1] z6 | 
[V:2] B2B2B2 | 
[V:3] _G2G2G2 | 
[V:4] E2E2E2 | 
[V:1] z2b2b2 ]|:  
[V:2] B2B2B2 ]|:  
[V:3] _G2G2G2 ]|:  
[V:4] E2E2E2 ]|:  
[V:1]  [K:Gb] b2=D2E2 | 
[V:2]  [K:Gb] [E2B2][E2B2][E2B2] | 
[V:3]  [K:Gb] G2G2G2 | 
[V:4]  [K:Gb] E2E,,2E,,2 | 
[V:1] G2B2e2 | 
[V:2] [E2B2][E2B2][E2B2] | 
[V:3] G2G2G2 | 
[V:4] E,,2z2z2 | 
[V:1] g2e2f2 | 
[V:2] [E2B2][E2B2][E2B2] | 
[V:3] G2G2G2 | 
[V:4] z2E2E2 | 
[V:1] g2f2e2 | 
[V:2] [E2B2][E2B2][E2B2] | 
[V:3] G2G2G2 | 
[V:4] E2z2z2 | 
[V:1] =d2f2a2 | 
[V:2] [F2B2][F2B2][F2B2] | 
[V:3] A2A2A2 | 
[V:4] z2B,2B,2 | 
[V:1] c'2b2a2 | 
[V:2] [F2B2][F2B2][F2B2] | 
[V:3] A2A2A2 | 
[V:4] B,2z2z2 | 
[V:1] g2a2f2 | 
[V:2] [F2B2][F2B2][F2B2] | 
[V:3] A2A2A2 | 
[V:4] z2B,,2B,,2 | 
[V:1] e2f2=d2 | 
[V:2] [F2B2][F2B2][F2B2] | 
[V:3] A2A2A2 | 
[V:4] B,,2z2z2 | 
[V:1] e2=d2e2 | 
[V:2] [E2B2][E2B2][E2B2] | 
[V:3] G2G2G2 | 
[V:4] z2E,,2E,,2 | 
[V:1] g2b2e'2 | 
[V:2] [E2B2][E2B2][E2B2] | 
[V:3] G2G2G2 | 
[V:4] E,,2z2z2 | 
[V:1] g'2e'2f'2 | 
[V:2] [E2B2][E2B2][E2B2] | 
[V:3] G2G2G2 | 
[V:4] z2E2E2 | 
[V:1] g'2e'2d'2 | 
[V:2] [E2B2][E2B2][E2B2] | 
[V:3] G2G2G2 | 
[V:4] E2z2z2 | 
[V:1] =c'2d'2e'2 | 
[V:2] G2A2A2 | 
[V:3] E2G2G2 | 
[V:4] z2A,2A,2 | 
[V:1] a2b2=c'2 | 
[V:2] G2A2A2 | 
[V:3] E2G2G2 | 
[V:4] A,2z2z2 | 
[V:1] d'2=c'2d'2 | 
[V:2] A2A2A2 | 
[V:3] F2F2F2 | 
[V:4] z2A,,2A,,2 | 
[V:1] f'2e'2d'2 | 
[V:2] A2A2A2 | 
[V:3] F2F2F2 | 
[V:4] A,,2z2z2 | 
[V:1] =c'2d'2e'2 | 
[V:2] A2A2A2 | 
[V:3] G2G2G2 | 
[V:4] z2A,2A,2 | 
[V:1] a2b2=c'2 | 
[V:2] A2A2A2 | 
[V:3] G2G2G2 | 
[V:4] A,2z2z2 | 
[V:1] d'2e'2f'2 |[1 
[V:2] A2A2A2 | 
[V:3] F2F2F2 | 
[V:4] z2D,2D,2 | 
[V:1] d'2b2b2 :|][2 
[V:2] A2G2[E2B2] :|]  
[V:3] F2E2G2 :|]  
[V:4] D2E2E2 :|]  
[V:1] d'2F2G2 | 
[V:2] A2F2G2 | 
[V:3] F2F,2G,2 | 
[V:4] D,2F,,2G,,2 | 
[V:1] A2B2=c2 | 
[V:2] A2B,2=C2 | 
[V:3] A,2B,2=C2 | 
[V:4] A,,2B,,2=C,2 | 
[V:1] d2F2G2 | 
[V:2] D2F2G2 | 
[V:3] D2F,2G,2 | 
[V:4] D,2F,,2G,,2 | 
[V:1] A2B2=c2 | 
[V:2] A2B,2=C2 | 
[V:3] A,2B,2=C2 | 
[V:4] A,,2B,,2=C,2 | 
[V:1] d2F2G2 | 
[V:2] D2F2G2 | 
[V:3] D2F,2G,2 | 
[V:4] D,2F,,2G,,2 | 
[V:1] A2B2=c2 | 
[V:2] A2B,2=C2 | 
[V:3] A,2B,2=C2 | 
[V:4] A,,2B,,2=C,2 | 
[V:1] d2z2e2 | 
[V:2] D2z2E2 | 
[V:3] D2z2E,2 | 
[V:4] D,2z2E,2 | 
[V:1] f6- | 
[V:2] [D6F6] | 
[V:3] D,6 | 
[V:4] D,,6 | 
[V:1] f2e2d2 | 
[V:2] [D6F6] | 
[V:3] F,6 | 
[V:4] D,,6 | 
[V:1] =c2d2B2 | 
[V:2] =E6 | 
[V:3] =E,6 | 
[V:4] D,,6 | 
[V:1] A2B2=G2 | 
[V:2] =E6 | 
[V:3] =E,6 | 
[V:4] D,,6 | 
[V:1] A6- | 
[V:2] [D6F6] | 
[V:3] F,6 | 
[V:4] D,,6 | 
[V:1] A2G2F2 | 
[V:2] [D6F6] | 
[V:3] F,6 | 
[V:4] D,,6 | 
[V:1] E2F2=D2 | 
[V:2] __B,6 | 
[V:3] G,6 | 
[V:4] D,,6 | 
[V:1] E2E2F2 | 
[V:2] __B,6 | 
[V:3] G,6 | 
[V:4] D,,6 | 
[V:1] D4f2- | 
[V:2] A,6 | 
[V:3] F,6 | 
[V:4] D,,6 | 
[V:1] f2e2d2 | 
[V:2] F6 | 
[V:3] F,6 | 
[V:4] D,,6 | 
[V:1] =c2e2d2 | 
[V:2] F6 | 
[V:3] F,6 | 
[V:4] D,,6 | 
[V:1] =c2d2B2 | 
[V:2] F6 | 
[V:3] F,6 | 
[V:4] D,,6 | 
[V:1] =A2=c2e2 | 
[V:2] E6 | 
[V:3] E,6 | 
[V:4] =C,,6 | 
[V:1] g2f2e2 | 
[V:2] E6 | 
[V:3] E,6 | 
[V:4] =C,,6 | 
[V:1] d2e2=c2 | 
[V:2] E6 | 
[V:3] E,6 | 
[V:4] F,,6 | 
[V:1] B2=c2=A2 | 
[V:2] E6 | 
[V:3] F6 | 
[V:4] F,,6 | 
[V:1] B2=A2B2 | 
[V:2] D2F2F2 | 
[V:3] F2D2D2 | 
[V:4] B,,2B,2B,2 | 
[V:1] d2f2b2 | 
[V:2] F2F2F2 | 
[V:3] D2D2D2 | 
[V:4] B,2z2z2 | 
[V:1] d'2b2=c'2 | 
[V:2] F2F2F2 | 
[V:3] D2D2D2 | 
[V:4] z2=E2E2 | 
[V:1] d'2=c'2b2 | 
[V:2] F2F2F2 | 
[V:3] D2D2D2 | 
[V:4] F2z2z2 | 
[V:1] =a2=c'2e'2 | 
[V:2] F2F2F2 | 
[V:3] E2E2E2 | 
[V:4] z2F,2F,2 | 
[V:1] g'2f'2e'2 | 
[V:2] F2F2F2 | 
[V:3] E2E2E2 | 
[V:4] F,2z2z2 | 
[V:1] d'2e'2=c'2 | 
[V:2] F2F2F2 | 
[V:3] E2E2E2 | 
[V:4] z2F,,2F,,2 | 
[V:1] b2=c'2=a2 | 
[V:2] F2F2F2 | 
[V:3] E2E2E2 | 
[V:4] F,,2z2z2 | 
[V:1] b2=a2b2 | 
[V:2] F2F2F2 | 
[V:3] D2D2D2 | 
[V:4] z2B,,2B,,2 | 
[V:1] d'2f'2b2 | 
[V:2] F2F2F2 | 
[V:3] D2D2D2 | 
[V:4] B,,2z2z2 | 
[V:1] d'2b2=c'2 | 
[V:2] F2F2F2 | 
[V:3] D2D2D2 | 
[V:4] z2B,2B,2 | 
[V:1] d'2B,2C2 | 
[V:2] F2G2A2 | 
[V:3] D2G,2A,2 | 
[V:4] B,2G,2F,2 | 
[V:1] D2E2F2 | 
[V:2] B2c2d2 | 
[V:3] B,2C2D2 | 
[V:4] E,2D,2C,2 | 
[V:1] G2B,2C2 | 
[V:2] d2B2c2 | 
[V:3] D2G2F2 | 
[V:4] B,,2G,2F,2 | 
[V:1] D2E2F2 | 
[V:2] d2e2f2 | 
[V:3] E2D2C2 | 
[V:4] E,2D,2C,2 | 
[V:1] G2B,2C2 | 
[V:2] g2B2c2 | 
[V:3] B,2G2F2 | 
[V:4] B,,2G,2F,2 | 
[V:1] D2E2F2 | 
[V:2] d2e2f2 | 
[V:3] E2D2C2 | 
[V:4] E,2D,2C,2 | 
[V:1] G2G2A2 | 
[V:2] g2g2a2 | 
[V:3] B,2B,2A,2 | 
[V:4] B,,2B,,2A,,2 | 
[V:1] B6- | 
[V:2] b6 | 
[V:3] G,6 | 
[V:4] G,,6 | 
[V:1] B2A2G2 | 
[V:2] D6 | 
[V:3] B,6 | 
[V:4] G,,6 | 
[V:1] F2G2E2 | 
[V:2] E6 | 
[V:3] =A,6 | 
[V:4] G,,6 | 
[V:1] D2E2=C2 | 
[V:2] [E6e6] | 
[V:3] =A,6 | 
[V:4] G,,6 | 
[V:1] D4d2- | 
[V:2] d6 | 
[V:3] B,6 | 
[V:4] G,,6 | 
[V:1] d2c2B2 | 
[V:2] d6 | 
[V:3] B,6 | 
[V:4] G,,6 | 
[V:1] A2B2=G2 | 
[V:2] f6 | 
[V:3] C6 | 
[V:4] G,,6 | 
[V:1] A2A2B2 | 
[V:2] f6 | 
[V:3] C6 | 
[V:4] G,,6 | 
[V:1] G4b2- | 
[V:2] g6 | 
[V:3] B,6 | 
[V:4] G,,6 | 
[V:1] b2a2g2 | 
[V:2] g6 | 
[V:3] B,6 | 
[V:4] G,6 | 
[V:1] f2a2g2 | 
[V:2] g6 | 
[V:3] B6 | 
[V:4] E,6 | 
[V:1] f2g2e2 | 
[V:2] g6 | 
[V:3] B6 | 
[V:4] E,6 | 
[V:1] =d2e2c2 | 
[V:2] a6 | 
[V:3] [=D6B6] | 
[V:4] B,,6 | 
[V:1] B2c2A2 | 
[V:2] a6 | 
[V:3] [=D6B6] | 
[V:4] B,,6 | 
[V:1] G2A2F2 | 
[V:2] a6 | 
[V:3] [=D6B6] | 
[V:4] B,,6 | 
[V:1] E2F2=D2 | 
[V:2] a6 | 
[V:3] [=D6B6] | 
[V:4] B,,6 | 
[V:1] E2=D2E2 | 
[V:2] [B2g2]B2B2 | 
[V:3] [E2B2]G2G2 | 
[V:4] E,2E2E2 | 
[V:1] G2B2e2 | 
[V:2] B2B2B2 | 
[V:3] G2G2G2 | 
[V:4] E2z2z2 | 
[V:1] g2e2f2 | 
[V:2] B2B2B2 | 
[V:3] G2G2G2 | 
[V:4] z2E,2E,2 | 
[V:1] g2f2e2 | 
[V:2] B2B2B2 | 
[V:3] G2G2G2 | 
[V:4] E,2z2z2 | 
[V:1] =d2f2a2 | 
[V:2] [A2B2][A2B2][A2B2] | 
[V:3] F2F2F2 | 
[V:4] z2B,,2B,,2 | 
[V:1] c'2b2a2 | 
[V:2] [A2B2][A2B2][A2B2] | 
[V:3] F2F2F2 | 
[V:4] B,,2z2z2 | 
[V:1] g2a2f2 | 
[V:2] [A2B2][A2B2][A2B2] | 
[V:3] F2F2F2 | 
[V:4] z2B,2B,2 | 
[V:1] e2f2=d2 | 
[V:2] [A2B2][A2B2][A2B2] | 
[V:3] F2F2F2 | 
[V:4] B,2z2z2 | 
[V:1] e2=d2e2 | 
[V:2] [G2B2][G2B2][G2B2] | 
[V:3] E2E2E2 | 
[V:4] z2E2E2 | 
[V:1] g2b2e'2 | 
[V:2] [G2B2][G2B2][G2B2] | 
[V:3] E2E2E2 | 
[V:4] E2z2z2 | 
[V:1] g'2e'2f'2 | 
[V:2] [G2B2][G2B2][G2B2] | 
[V:3] E2E2E2 | 
[V:4] z2E,2E,2 | 
[V:1] g'2=D2E2 | 
[V:2] [G2B2]B,2=C2 | 
[V:3] E2F,2F,2 | 
[V:4] E,2F,2E,2 | 
[V:1] F2G2=A2 | 
[V:2] =D2E2F2 | 
[V:3] F,2F,2E,2 | 
[V:4] =D,2D,2=C,2 | 
[V:1]  [K:Bb] B2D2E2 | 
[V:2]  [K:Bb] F2B,2C2 | 
[V:3]  [K:Bb] D,2B,2A,2 | 
[V:4]  [K:Bb] B,,2z2z2 | 
[V:1] F2G2A2 | 
[V:2] D2E2F2 | 
[V:3] G,2F,2E,2 | 
[V:4] z6 | 
[V:1] B2D2E2 | 
[V:2] F2B,2C2 | 
[V:3] D,2D,2E,2 | 
[V:4] z2B,,2A,,2 | 
[V:1] F2G2A2 | 
[V:2] D2E2F2 | 
[V:3] F,2G,2A,2 | 
[V:4] G,,2F,,2E,,2 | 
[V:1] B2D2E2 | 
[V:2] F2B2A2 | 
[V:3] B,2B,2A,2 | 
[V:4] D,,2B,,2A,,2 | 
[V:1] F2G2A2 | 
[V:2] G2F2E2 | 
[V:3] G,2F,2E,2 | 
[V:4] G,,2F,,2E,,2 | 
[V:1] B2B2c2 | 
[V:2] D2D2C2 | 
[V:3] D,2D,2C,2 | 
[V:4] D,,2D,2C,2 | 
[V:1] d6- | 
[V:2] B,6 | 
[V:3] B,6 | 
[V:4] B,,6 | 
[V:1] d2c2B2 | 
[V:2] f6 | 
[V:3] D6 | 
[V:4] B,,6 | 
[V:1] A2B2G2 | 
[V:2] g6 | 
[V:3] [^C6=E6] | 
[V:4] B,,6 | 
[V:1] F2G2=E2 | 
[V:2] g6 | 
[V:3] [^C6=E6] | 
[V:4] B,6 | 
[V:1] F4f2- | 
[V:2] f6 | 
[V:3] D6 | 
[V:4] B,6 | 
[V:1] f2e2d2 | 
[V:2] f6 | 
[V:3] D6 | 
[V:4] B,6 | 
[V:1] c2d2=B2 | 
[V:2] a6 | 
[V:3] E6 | 
[V:4] B,6 | 
[V:1] c2c2d2 | 
[V:2] a6 | 
[V:3] E6 | 
[V:4] B,6 | 
[V:1] B4d'2- | 
[V:2] b6 | 
[V:3] D6 | 
[V:4] B,6 | 
[V:1] d'2c'2b2 | 
[V:2] f6 | 
[V:3] D6 | 
[V:4] B,6 | 
[V:1] a2b2g2 | 
[V:2] [=e6g6] | 
[V:3] [^C6=E6] | 
[V:4] B,6 | 
[V:1] f2g2=e2 | 
[V:2] [=e6g6] | 
[V:3] [^C6=E6] | 
[V:4] B,6 | 
[V:1] f4f'2- | 
[V:2] f6 | 
[V:3] D6 | 
[V:4] B,6 | 
[V:1] f'2e'2d'2 | 
[V:2] f6 | 
[V:3] D6 | 
[V:4] B,6 | 
[V:1] c'2d'2=b2 | 
[V:2] [c6a6] | 
[V:3] E6 | 
[V:4] B,6 | 
[V:1] c'2c'2d'2 | 
[V:2] [c6a6] | 
[V:3] E6 | 
[V:4] B,6 | 
[V:1] b2c'2a2 | 
[V:2] f6 | 
[V:3] D6 | 
[V:4] B,6 | 
[V:1] b2c'2d'2 | 
[V:2] f6 | 
[V:3] D6 | 
[V:4] B,6 | 
[V:1] c'2d'2=b2 | 
[V:2] [c6a6] | 
[V:3] E6 | 
[V:4] B,6 | 
[V:1] c'2c'2d'2 | 
[V:2] [c6a6] | 
[V:3] E6 | 
[V:4] B,6 | 
[V:1] b2c'2a2 | 
[V:2] f6 | 
[V:3] D6 | 
[V:4] B,6 | 
[V:1] b2c'2d'2 | 
[V:2] f6 | 
[V:3] D6 | 
[V:4] B,6 | 
[V:1] c'2d'2=b2 | 
[V:2] [c6a6] | 
[V:3] E6 | 
[V:4] B,6 | 
[V:1] c'2c'2d'2 | 
[V:2] [c6a6] | 
[V:3] [C6E6] | 
[V:4] B,6 | 
[V:1] c'2d'2e'2 | 
[V:2] [c6a6] | 
[V:3] [C6E6] | 
[V:4] B,6 | 
[V:1]  [K:Eb] z2z> f' e' z/ c'/ | 
[V:2]  [K:Eb] z6 | 
[V:3]  [K:Eb] z6 | 
[V:4]  [K:Eb] z6 | 
[V:1] d'2z> d' c' z/ =a/ | 
[V:2] [d6f6]- | 
[V:3] B6- | 
[V:4] z6 | 
[V:1] b2z> b a z/ f/ | 
[V:2] [d6f6] | 
[V:3] B6- | 
[V:4] z6 | 
[V:1] a4g2 | 
[V:2] f4e2 | 
[V:3] B2=A4 | 
[V:4] z6 | 
[V:1] f6- | 
[V:2] d6- | 
[V:3] B z/ B,/B4- | 
[V:4] z2z> B,, C, z/ E,/ | 
[V:1] f6- | 
[V:2] d6- | 
[V:3] B6- | 
[V:4] D,2z> D, E, z/ G,/ | 
[V:1] f6- | 
[V:2] d6 | 
[V:3] B6 | 
[V:4] F,2z> F, G, z/ B,/ | 
[V:1] f6- | 
[V:2] e6- | 
[V:3] c4B2 | 
[V:4] =A,4B,2 | 
[V:1] f2[B,2F2]G2 | 
[V:2] e2A2B,2 | 
[V:3] =A2z> c B z/ G/ | 
[V:4] C2D,2=E,2 | 
[V:1] A2z2z2 | 
[V:2] A,4B,2 | 
[V:3] A2z> A G z/ =E/ | 
[V:4] F,4G,2 | 
[V:1] z6 | 
[V:2] C4c2 | 
[V:3] F2z> F E z/ C/ | 
[V:4] A,4=A,2 | 
[V:1] z6 | 
[V:2] F2z2z2 | 
[V:3] D4C2 | 
[V:4] B,4E2 | 
[V:1] z6 | 
[V:2] B4A2 | 
[V:3] B,2z2z2 | 
[V:4] D2z2z2[K:clef=tenor] | 
[V:1] z6 | 
[V:2] G2z2z2 | 
[V:3] E,4D,2 | 
[V:4] G4F2 | 
[V:1] z6 | 
[V:2] e4=A2 | 
[V:3] C,2z2z2 | 
[V:4] E2z2z2[K:clef=bass] | 
[V:1] z6 | 
[V:2] B2z2z2 | 
[V:3] F,4E,2 | 
[V:4] D,4C,2 | 
[V:1] b4a2 | 
[V:2] d4f2 | 
[V:3] D,2z2z2 | 
[V:4] B,,2z2z2 | 
[V:1] g2z2z2 | 
[V:2] G4B2 | 
[V:3] G,4F,2 | 
[V:4] E,,4D,,2 | 
[V:1] e'4d'2 | 
[V:2] =A2_A> E F z/ A/ | 
[V:3] E,2A,3F, | 
[V:4] C,, z/ C,/_C,2B,,2 | 
[V:1] e'2z2z2 | 
[V:2] [G,2G2]z> G A z/ A/ | 
[V:3] E,2E2F2 | 
[V:4] E, z/ E,/E2z2 | 
[V:1] z6 | 
[V:2] B2z> B c z/ e/ | 
[V:3] G4A2 | 
[V:4] z> E,E2z2 | 
[V:1] z6 | 
[V:2] d4e2 | 
[V:3] A4G2 | 
[V:4] F z/ F,/ F B, E z/ B,/ | 
[V:1] z2z> f' e' z/ c'/ | 
[V:2] f2F2G2 | 
[V:3] F2D2E2 | 
[V:4] D z/ B,,/B,2z2 | 
[V:1] d'2z> d' c' z/ =a/ | 
[V:2] A4=A2 | 
[V:3] F4E2 | 
[V:4] B, z/ B,,/B,2C2 | 
[V:1] b2z> b a z/ f/ | 
[V:2] B6- | 
[V:3] F2=E2F A | 
[V:4] _D4=D2 | 
[V:1] g4f2 | 
[V:2] B6- | 
[V:3] G2E2D2 | 
[V:4] E2E, z/ B,/ A, z/ F,/ | 
[V:1] e2z> b a z/ f/ | 
[V:2] B2B2d2 | 
[V:3] E2B,4- | 
[V:4] G,4F,2 | 
[V:1] g4f2 | 
[V:2] e2B4- | 
[V:3] B,2E2D2 | 
[V:4] E,2z> B, A, z/ F,/ | 
[V:1] e4d2 | 
[V:2] B4=B2 | 
[V:3] E2G2F2 | 
[V:4] G,2z> G,, G, z/ G,/ | 
[V:1] c2f2g2 | 
[V:2] C2c2=B2 | 
[V:3] F2C2[G,2D2] | 
[V:4] A,2A,2G,2 | 
[V:1] z2e2z2 | 
[V:2] z2c2z2 | 
[V:3] z2G2z2 | 
[V:4] z2C2z2 | 
[V:1] z2f2z2 | 
[V:2] z2c2z2 | 
[V:3] z2=A2z2 | 
[V:4] z2F,2z2 | 
[V:1] d2f2g2 | 
[V:2] F2d2d2 | 
[V:3] D C =B, D C B, | 
[V:4] B, A, G, =B, =A, G, | 
[V:1] z> ee'2z2 | 
[V:2] e G E G F E | 
[V:3] E c e c d e | 
[V:4] C E C E D C | 
[V:1] z> ff'2z2 | 
[V:2] c e c e d c & F F F F F F | 
[V:3] E C E C D E | 
[V:4] =A, C A, C B, A, | 
[V:1] _g z/ f/ =g z/ f/ =a z/ f/ | 
[V:2] c B =A G F E | 
[V:3] F F E D C B, | 
[V:4] E D C B, =A, G, | 
[V:1] b z/ f/ c' z/ e/ d' z/ e/ | 
[V:2] D C B, =A, G, F | 
[V:3] =A, G, F, E, D, C, | 
[V:4] F, E, D, C, B,, =A,, | 
[V:1] e' z/ f/ e' z/ f'/ g' z/ =a'/ | 
[V:2] E E E E e e | 
[V:3] B, =A, A, C C C | 
[V:4] G,, F,, F F, F, F,, | 
[V:1] b'2B, z/ =B,/ C z/ E/ | 
[V:2] d2B, z/ =B,/ C z/ E/ | 
[V:3] B,2B z/ =B,/ C z/ E/ | 
[V:4] B,,2B, z/ =B,,/ C, z/ E,/ | 
[V:1] C z/ D/ F z/ E/ F z/ A/ | 
[V:2] C z/ D/ F z/ E/ F z/ A/ | 
[V:3] C, z/ D,/ F, z/ E,/ F, z/ A,/ | 
[V:4] C,, z/ D,,/ F,, z/ E,,/ F,, z/ A,,/ | 
[V:1] G z/ =A/ c z/ =B/ c z/ e/ | 
[V:2] G z/ =A/ c z/ =B/ c z/ e/ | 
[V:3] G, z/ =A,/ C z/ =B,/ C z/ E/ | 
[V:4] G,, z/ =A,,/ C, z/ =B,,/ C, z/ E,/ | 
[V:1] d z/ e/ f z/ =e/ f z/ ^f/ | 
[V:2] d z/ e/ f z/ =e/ f z/ ^F/ | 
[V:3] D z/ E/ F z/ =E/ F z/ ^F/ | 
[V:4] D, z/ E,/ F, z/ =E,/ F, z/ ^F,/ | 
[V:1] g z/ g/ g' z/ g/ f z/ d/ | 
[V:2] G z/ G/ g zz2 | 
[V:3] G, z/ G,/ G zz2 | 
[V:4] G,, z/ G,,/ G, =B,, D, G, | 
[V:1] e2z> e d z/ =B/ | 
[V:2] z> Ge2z2 | 
[V:3] z6 | 
[V:4] C, G, C G, =B, G, | 
[V:1] c2z> a g z/ e/ | 
[V:2] z6 | 
[V:3] z> G,C,2z2 | 
[V:4] C, G, E G, C, G, | 
[V:1] f2z> f e z/ c/ | 
[V:2] z> Gf2z2 | 
[V:3] z6 | 
[V:4] =B,, G, D G, C, G, | 
[V:1] d2z> g f z/ d/ | 
[V:2] z6 | 
[V:3] z> DG,2z2 | 
[V:4] =B,, G, D G, B,, G, | 
[V:1] e2z> e d z/ =B/ | 
[V:2] z> Ge2z2 | 
[V:3] z6 | 
[V:4] C, G, C G, F, G, | 
[V:1] c2z2z2 | 
[V:2] z2z> G B z/ c/ | 
[V:3] z> C G z/ C,/ G, G, | 
[V:4] E, G, =E, G, C, E, | 
[V:1] z> cc'2z2 | 
[V:2] A2z> A B z/ _d/ | 
[V:3] F, C A C F, C | 
[V:4] F,,2z2z2 | 
[V:1] z6 | 
[V:2] c2z> =E F z/ A/ | 
[V:3] F, C A C F, C | 
[V:4] z> F,C2z2 | 
[V:1] z> cc'2z2 | 
[V:2] G2z> G A z/ c/ | 
[V:3] =E, C G C F, C | 
[V:4] z6 | 
[V:1] z> c a A C A | 
[V:2] B z/ c/ A z/ A/ B z/ c/ | 
[V:3] =E, C F, z/ F/ E z/ C/ | 
[V:4] z> C, F, z/ A,/ _G, z/ E,/ | 
[V:1] _D A f A C A | 
[V:2] _d2z> d e z/ _g/ | 
[V:3] A,2z> A, _G, z/ E,/ | 
[V:4] F,2z> F, E, z/ C,/ | 
[V:1] _D A f A D A | 
[V:2] f2z> c _d z/ f/ | 
[V:3] F,2z> _G F z/ _D/ | 
[V:4] _D,2z> B, A, z/ F,/ | 
[V:1] C A e A _D A | 
[V:2] e2z> e f z/ a/ | 
[V:3] [A,2A2]z> C _D z/ A,/ | 
[V:4] _G,2z> G, F, z/ _D,/ | 
[V:1] C A _g z/ a/ g z/ e/ | 
[V:2] _g2z2z2 | 
[V:3] A,2z> C, _D, z/ A,/ | 
[V:4] E,2z> A,, B,, z/ C,/ | 
[V:1] f2z> f e z/ c/ | 
[V:2] z> A,A2z2 | 
[V:3] A,2z> F, _G, z/ A,/ | 
[V:4] _D,2z> D, E, z/ _G,/ | 
[V:1] d2z> b a z/ f/ | 
[V:2] z> B,B2z2 | 
[V:3] A,2z> E, F, z/ A,/ | 
[V:4] F,2z> C, D, z/ F,/ | 
[V:1] _g2z> g f z/ d/ | 
[V:2] z> B,B2z2 | 
[V:3] _G,2z> G, A, z/ B,/ | 
[V:4] E,2z> E, F, z/ A,/ | 
[V:1] e z/ _c'/ b z/ _g/ a z/ a/ | 
[V:2] z2z> B _c z/ c/ | 
[V:3] B, z/ F,/ _G, z/ B,/ A, z/ A,/ | 
[V:4] _G, z/ D,/ E, z/ G,/ F, z/ F,/ | 
[V:1] _g z/ e/ f z/ _d'/ _c' z/ a/ | 
[V:2] B z/ _G/ A z/ _d/ d z/ _c/ | 
[V:3] B, z/ _D/ _C z/ _G,/ A, z/ D/ | 
[V:4] _G, z/ B,/ A, z/ E,/ F, z/ F,/ | 
[V:1] b z/ _g/ b z/ g/ b z/ g/ | 
[V:2] B z/ _d/ B z/ d/ B z/ d/ | 
[V:3] _D z/ _G/ D z/ G/ D z/ G/ | 
[V:4] _G, z/ B,/ G, z/ B,/ G, z/ B,/ | 
[V:1] _c' z/ _g/ c' z/ g/ c' z/ g/ | 
[V:2] _G z/ _c/ G z/ c/ G z/ c/ | 
[V:3] _C z/ E/ C z/ E/ C z/ E/ | 
[V:4] E, z/ _G,/ E, z/ G,/ E, z/ G,/ | 
[V:1] b z/ _g/ b z/ g/ b z/ g/ | 
[V:2] _G z/ B/ G z/ B/ G z/ B/ | 
[V:3] B, z/ _D/ B, z/ D/ B, z/ D/ | 
[V:4] _D, z/ _G,/ D, z/ G,/ D, z/ G,/ | 
[V:1] a z/ f/ a z/ f/ a z/ f/ | 
[V:2] F z/ _d/ F z/ d/ F z/ d/ | 
[V:3] A, z/ F/ A, z/ F/ A, z/ F/ | 
[V:4] _D, z/ A,/ D, z/ A,/ D, z/ A,/ | 
[V:1] =a z/ ^f/ a z/ f/ a z/ f/ | 
[V:2] =A z/ ^c/ A z/ c/ A z/ c/ | 
[V:3] =A, z/ ^F/ A, z/ F/ A, z/ F/ | 
[V:4] ^F, z/ =A,/ F, z/ A,/ F, z/ A,/ | 
[V:1] =a z/ ^f/ a z/ f/ a z/ f/ | 
[V:2] =A z/ d/ A z/ d/ A z/ d/ | 
[V:3] =A, z/ ^F/ A, z/ F/ A, z/ F/ | 
[V:4] ^F, z/ =A,/ F, z/ A,/ F, z/ A,/ | 
[V:1] d' z/ D/ =E z/ G/ ^F z/ G/ | 
[V:2] [Dd] z/ D/ =E z/ G/ ^F z/ G/ | 
[V:3] [D,D] z/ D,/ =E, z/ G,/ ^F, z/ G,/ | 
[V:4] D, z/ D,,/ =E,, z/ G,,/ ^F,, z/ G,,/ | 
[V:1] B z/ =A/ B z/ d/ c z/ d/ | 
[V:2] B z/ =A/ B z/ d/ c z/ d/ | 
[V:3] B, z/ =A,/ B, z/ D/ C z/ D/ | 
[V:4] B,, z/ =A,,/ B,, z/ D,/ C, z/ D,/ | 
[V:1] e z/ d/ =e z/ g/ ^f z/ g/ | 
[V:2] e z/ d/ =e z/ g/ ^f z/ g/ | 
[V:3] E z/ D/ =E z/ G/ ^F z/ G/ | 
[V:4] E, z/ D,/ =E, z/ G,/ ^F, z/ G,/ | 
[V:1] b z/ =a/ c' z/ d'/e'2 | 
[V:2] B z/ =A/ c z/ d/e2 | 
[V:3] B z/ =A/ c z/ d/e2 | 
[V:4] B, z/ =A,/ C z/ D/E2 | 
[V:1] [M:2/4]z4 | 
[V:2] [M:2/4]z4 | 
[V:3] [M:2/4]z2C,2 | 
[V:4] [M:2/4]z2C,,2 | 
[V:1] z4 | 
[V:2] z4 | 
[V:3] D,2^F,2 | 
[V:4] D,,2^F,,2 | 
[V:1] z4 | 
[V:2] z4 | 
[V:3] G,2B,2 | 
[V:4] G,,2B,,2 | 
[V:1] z4 | 
[V:2] z4 | 
[V:3] =A, B,/ A,/ G, B, | 
[V:4] =A,, B,,/ A,,/ G,, B,, | 
[V:1] z4 | 
[V:2] z4 | 
[V:3] E D ^F G | 
[V:4] E, D, ^F, G, | 
[V:1] [M:3/4]z2z> e' d' z/ =b/ | 
[V:2] [M:3/4][^F6=A6]- | 
[V:3] [M:3/4]E6- | 
[V:4] [M:3/4]C6- | 
[V:1] c'2z2z2 | 
[V:2] [F2A2]z> =B, D z/ E/ | 
[V:3] E2z2z2 | 
[V:4] C2z2z2 | 
[V:1] z6 | 
[V:2] F2z2z2 | 
[V:3] z2G,2=B,2 | 
[V:4] z2G,,2=B,,2 | 
[V:1] [M:2/4]z4 | 
[V:2] [M:2/4]z4 | 
[V:3] [M:2/4]C,2E,2 | 
[V:4] [M:2/4]C,,2E,,2 | 
[V:1] z4 | 
[V:2] z4 | 
[V:3] D, E,/ D,/ C, E, | 
[V:4] D,, E,,/ D,,/ C,, E,, | 
[V:1] z4 | 
[V:2] z4 | 
[V:3] A, G, =B, C | 
[V:4] A,, G,, G, F, | 
[V:1] [M:3/4]z2z> _d' c' z/ g/ | 
[V:2] [M:3/4]z6 | 
[V:3] [M:3/4][C6G6]- | 
[V:4] [M:3/4]=E,6- | 
[V:1] b2z2z2 | 
[V:2] z2z> C G z/ A/ | 
[V:3] [C6G6]- | 
[V:4] E,6 | 
[V:1] z6 | 
[V:2] B2z2z2 | 
[V:3] [C3G3]z/ =E,/ G, z/ A,/ | 
[V:4] =E,,4_D,,2 | 
[V:1] z2z> c' b z/ g/ | 
[V:2] z2z> G c z/ =e/ | 
[V:3] B,2z> =E G z/ c/ | 
[V:4] C,,2z2G,,2 | 
[V:1] a2z2z2 | 
[V:2] f2z2z2 | 
[V:3] c2z> C, F, z/ G,/ | 
[V:4] F,,4_D,,2 | 
[V:1] z2z> a g z/ =e/ | 
[V:2] z2z> F =E z/ G/ | 
[V:3] A,2z> C, _D, z/ _D/ | 
[V:4] C,,4B,,2 | 
[V:1] f2z> f' e' z/ c'/ | 
[V:2] F2z> A, B, z/ B/ | 
[V:3] C2z> F, G, z/ E/ | 
[V:4] A,,4G,,2 | 
[V:1] d'2z> d' e' z/ d'/ | 
[V:2] B2z> B B z/ B/ | 
[V:3] A2z> A G z/ G/ | 
[V:4] F,,4E,,2 | 
[V:1] f' z/ f'/ e' z/ b/ a z/ f/ | 
[V:2] B z/ a/ g G A D | 
[V:3] F z/ B/ B B, D, B, | 
[V:4] D,, z/ D,,/ E,, z/ E,/ F, z/ A,/ | 
[V:1] e z/ e/e'2z2 | 
[V:2] E2z> Ee2 | 
[V:3] E, B, [E,G,] E, F, A, | 
[V:4] G,2z> G, A, z/ C/ | 
[V:1] z> ee'2z2 | 
[V:2] z2z> Ee2 | 
[V:3] G, [GB] G, G, A, =A, | 
[V:4] B,2z> B, C z/ E/ | 
[V:1] z> Bb2z2 | 
[V:2] z2z> B,B2 | 
[V:3] B, F F, B, G, B, | 
[V:4] D4E2 | 
[V:1] z> Bb2z2 | 
[V:2] z2z> f e z/ c/ | 
[V:3] A, F, D, z/ B,/B2 | 
[V:4] F2z D, G, E, | 
[V:1] z> =A, B, z/ F/_G2 | 
[V:2] d2z> d c z/ =A/ | 
[V:3] z> F, D z/ D/E2 | 
[V:4] B,, B, F, B, E, B, | 
[V:1] z6 | 
[V:2] B2z> B A z/ F/ | 
[V:3] z> =E, F, z/ G,/A,2 | 
[V:4] _D, B, =D, B, F, B, | 
[V:1] z> =A B z/ e/d2 | 
[V:2] G4F2 | 
[V:3] z6 | 
[V:4] E, B, G, B, A, B, | 
[V:1] z2z> e f z/ a/ | 
[V:2] E2z E D d | 
[V:3] z> D E z/ G/ F z/ F/ | 
[V:4] G, B, E, B, B,, B, | 
[V:1] g2z> g a z/ c'/ | 
[V:2] E e E e F e | 
[V:3] [G,2G2]z> E,E2 | 
[V:4] E, z/ E,,/E,2z2 | 
[V:1] b2z> b c' z/ e'/ | 
[V:2] G e G e A G | 
[V:3] z2z> E,E2 | 
[V:4] z> E,,E,2z2 | 
[V:1] d'4e'2 | 
[V:2] F B F B G B | 
[V:3] z2z> B,B2 | 
[V:4] z> B,,B,2z2 | 
[V:1] f'2z2z2 | 
[V:2] A2z> A G z/ E/ | 
[V:3] z2z> B,B2 | 
[V:4] z> B,, B, z/ F,/ E, z/ C,/ | 
[V:1] z> c' d' z/ f'/e'2 | 
[V:2] F2z> B c z/ e/ | 
[V:3] z> F,F2z2 | 
[V:4] D,2z> D, C, z/ =A,,/ | 
[V:1] z> =a b z/ d'/c'2 | 
[V:2] d z/ D/d2z2 | 
[V:3] z2z> G, A, z/ C/ | 
[V:4] B,,2z> B,, A,, z/ F,,/ | 
[V:1] z> d e z/ e/ f z/ a/ | 
[V:2] z> B, B z/ B,/ B z/ B,/ | 
[V:3] B,2E,2D,2 | 
[V:4] G,,4F,,2 | 
[V:1] g4a2 | 
[V:2] B z/ B,/ B z/ B,/ B z/ B,/ | 
[V:3] E,4F,2 | 
[V:4] E,,2z> B,, A,, z/ F,,/ | 
[V:1] b2z> e f z/ a/ | 
[V:2] B z/ B,/ B z/ B,/ B z/ B,/ | 
[V:3] E,4D,2 | 
[V:4] G,,4F,,2 | 
[V:1] g4a2 | 
[V:2] B z/ B,/ B z/ B,/ B z/ B,/ | 
[V:3] E,4F,2 | 
[V:4] E,,2z> B,, A,, z/ F,,/ | 
[V:1] b4=b2 | 
[V:2] B z/ G,/ G z/ G,/ G z/ G,/ | 
[V:3] E,2G,2D2 | 
[V:4] G,,2z> G, F, z/ D,/ | 
[V:1] c'2_d'2e'2 | 
[V:2] G z/ e/ _d z/ d/ c z/ c/ | 
[V:3] E z/ E/ E z/ E/ E z/ C/ | 
[V:4] C, z/ C/ B, z/ B,/ A, z/ A,/ | 
[V:1] f'2^f'2g'2 | 
[V:2] c2c'2[d2=b2] | 
[V:3] C2C2D2 | 
[V:4] A,2A,2G,2 | 
[V:1] z2e'2z2 | 
[V:2] z2g2z2 | 
[V:3] z2c2z2 | 
[V:4] z6 | 
[V:1] z2f'2z2 | 
[V:2] z2[=A2f2]z2 | 
[V:3] z2E2z2 | 
[V:4] z2C2z2 | 
[V:1] d'2b2c'2 | 
[V:2] [B2f2]B2[B2g2] | 
[V:3] D2F2G2 | 
[V:4] B,2D2=E2 | 
[V:1] z2a2z2 | 
[V:2] z2c2z2 | 
[V:3] z2F2z2 | 
[V:4] z2F2z2 | 
[V:1] z2b2z2 | 
[V:2] z2[F2d2]z2 | 
[V:3] z2[B,2D2]z2 | 
[V:4] z2B,2z2 | 
[V:1] g2b2c'2 | 
[V:2] G F =E G F E | 
[V:3] z6 | 
[V:4] E _D C =E =D C | 
[V:1] z> Aa2z2 | 
[V:2] C B, A, C B, A, | 
[V:3] A, G, F, A, G, F, | 
[V:4] z6 | 
[V:1] z> Bb2z2 | 
[V:2] f e d f e d | 
[V:3] B B B B B B | 
[V:4] D C B, D C B, | 
[V:1] _c' z/ b/ =c' z/ b/ d' z/ b/ | 
[V:2] f d d c B A | 
[V:3] A F F E D F | 
[V:4] B, B, B, B, B, B, | 
[V:1] e' z/ b/ f' z/ b/ g' z/ b/ | 
[V:2] G F E D C B, | 
[V:3] E D C B, A, G, | 
[V:4] B, B,, B,, B,, B,, B,, | 
[V:1] a' z/ B/ a z/ b/ c' z/ d'/ | 
[V:2] A, G, F F E B, | 
[V:3] F, E, D, C, B, A, | 
[V:4] B,, B,, B,, A,, G,, F,, | 
[V:1] e'2e z/ e'/ d' z/ =b/ | 
[V:2] B,2E z/ e/ d z/ =B/ | 
[V:3] G, z/ G,/ =A, z/ C/B,2 | 
[V:4] E,, z/ G,,/ =A,, z/ C,/B,,2 | 
[V:1] c'2c z/ c'/ b z/ g/ | 
[V:2] c2C z/ c/ B z/ G/ | 
[V:3] z> E, F, z/ A,/G,2 | 
[V:4] z> E,, F,, z/ A,,/G,,2 | 
[V:1] a2A z/ a/ g z/ e/ | 
[V:2] A2A, z/ A/ G z/ [B,/E/] | 
[V:3] z> C, D, z/ F,/ E, z/ G,/ | 
[V:4] z> C,, D,, z/ F,,/ E,, z/ E,/ | 
[V:1] f4e2 | 
[V:2] F z/ B/ B z/ B/ =A z/ A/ | 
[V:3] F,6 | 
[V:4] D,4C,2 | 
[V:1] d2z> a g z/ =e/ | 
[V:2] B z/ B,/ B, z/ B,/ B, z/ B,/ | 
[V:3] F,2z> D E z/ G/ | 
[V:4] B,,2z> F, E, z/ ^C,/ | 
[V:1] f4e2 | 
[V:2] B, z/ B/ B z/ B/ B z/ A/ | 
[V:3] F2F,4 | 
[V:4] D,4C,2 | 
[V:1] d2z> b a z/ ^f/ | 
[V:2] A z/ A/ A z/ A/ A z/ A/ | 
[V:3] F,2E, z/ E,/ F, z/ B,/ | 
[V:4] B,,2C,,2D,,2 | 
[V:1] g4f2 | 
[V:2] G z/ D/ E z/ G/ B z/ d/ | 
[V:3] B,4A,2 | 
[V:4] E,,6- | 
[V:1] e2z> b a z/ ^f/ | 
[V:2] e z/ F/ G z/ B/ E z/ B,/ | 
[V:3] G, z/ D,/ E, z/ G,/ C, z/ D,/ | 
[V:4] E,,6- | 
[V:1] g4f2 | 
[V:2] B,4A,2 | 
[V:3] E, z/ D,/ E, z/ G,/ B, z/ D/ | 
[V:4] E,,6- | 
[V:1] e4_d2 | 
[V:2] G, z/ F/ G z/ B/ A z/ B/ | 
[V:3] E z/ D,/ E, z/ G,/ F, z/ G,/ | 
[V:4] E,,6- | 
[V:1] c4_c2 | 
[V:2] c z/ E/ E z/ E/ F z/ D/ | 
[V:3] A, z/ C,/ C, z/ C,/ D, z/ F,/ | 
[V:4] E,,6- | 
[V:1] B4_c2 | 
[V:2] E z/ D/ E z/ G/ A z/ A/ | 
[V:3] G, z/ F,/ G, z/ E/ D z/ D/ | 
[V:4] E,,6- | 
[V:1] B4_C2 | 
[V:2] G z/ D/ E z/ G/ A z/ A/ | 
[V:3] E z/ F/ G z/ E/ D z/ D/ | 
[V:4] E,,6- | 
[V:1] B,4_C2 | 
[V:2] G z/ D/ E z/ G,/ A, z/ A,/ | 
[V:3] E z/ F,/ G, z/ E,/ D, z/ D,/ | 
[V:4] E,,6- | 
[V:1] B,2z> B B z/ B/ | 
[V:2] G,2z> G F z/ A/ | 
[V:3] E,2z> E F z/ F/ | 
[V:4] E,,2z> E D z/ B,/ | 
[V:1] B2B2z2 | 
[V:2] G2G2z2 | 
[V:3] E2E2z2 | 
[V:4] E2E2z2 | 
[V:1] z6 | 
[V:2] z2z> B B z/ [A/B/] | 
[V:3] z2z> G F z/ F/ | 
[V:4] z2z> E D z/ B,/ | 
[V:1] z6 | 
[V:2] [G2B2]B2z2 | 
[V:3] G2G2z2 | 
[V:4] E2E2z2 | 
[V:1] z6 | 
[V:2] z2B2z2 | 
[V:3] z2G2z2 | 
[V:4] z2E2z2 | 
[V:1] z6 | 
[V:2] z2B2z2 | 
[V:3] z2_G2z2 | 
[V:4] z2E2z2 | 
[V:1] z6 | 
[V:2] z2B2z2 | 
[V:3] z2_G2z2 | 
[V:4] z2E2z2 | 
[V:1] z6 | 
[V:2] z2B2B2 | 
[V:3] z2_G2G2 | 
[V:4] z2E2E2 | 
[V:1] z6 | 
[V:2] B2B2B2 | 
[V:3] _G2G2G2 | 
[V:4] E2E2E2 | 
[V:1] z6 | 
[V:2] B2B2B2 | 
[V:3] _G2G2G2 | 
[V:4] E2E2E2 | 
[V:1] z2b2b2 | 
[V:2] B2B2B2 | 
[V:3] _G2G2G2 | 
[V:4] E2E2E2 | 
[V:1] b2D2E2 | 
[V:2] [E2B2][E2B2][E2B2] | 
[V:3] _G2G2G2 | 
[V:4] E2E,,2E,,2 | 
[V:1] _G2B2e2 | 
[V:2] [E2B2][E2B2][E2B2] | 
[V:3] _G2G2G2 | 
[V:4] E,,2z2z2 | 
[V:1] _g2e2f2 | 
[V:2] [E2B2][E2B2][E2B2] | 
[V:3] _G2G2G2 | 
[V:4] z2E2E2 | 
[V:1] _g2f2e2 | 
[V:2] [E2B2][E2B2][E2B2] | 
[V:3] _G2G2G2 | 
[V:4] E2z2z2 | 
[V:1] d2f2a2 | 
[V:2] [F2B2][F2B2][F2B2] | 
[V:3] A2A2A2 | 
[V:4] z2B,2B,2 | 
[V:1] _c'2b2a2 | 
[V:2] [F2B2][F2B2][F2B2] | 
[V:3] A2A2A2 | 
[V:4] B,2z2z2 | 
[V:1] _g2a2f2 | 
[V:2] [F2B2][F2B2][F2B2] | 
[V:3] A2A2A2 | 
[V:4] z2B,,2B,,2 | 
[V:1] e2f2d2 | 
[V:2] [F2B2][F2B2][F2B2] | 
[V:3] A2A2A2 | 
[V:4] B,,2z2z2 | 
[V:1] z6 | 
[V:2] z6 | 
[V:3] z6 | 
[V:4] z6 | 
[V:1] z2z> B B z/ B/ | 
[V:2] z2z> G F z/ A/ | 
[V:3] z2z> E F z/ F/ | 
[V:4] z2z> E D z/ B,/ | 
[V:1] B2B2z2 | 
[V:2] G2G2z2 | 
[V:3] E2E2z2 | 
[V:4] E2E2z2 | 
[V:1] z6 | 
[V:2] z2z> B B z/ [A/B/] | 
[V:3] z2z> G F z/ F/ | 
[V:4] z2z> E D z/ B,/ | 
[V:1] z> b a z/ f/g2 | 
[V:2] [G2B2]B2z2 | 
[V:3] G2G2z2 | 
[V:4] E2E2z2 | 
[V:1] z> g f z/ d/e2 | 
[V:2] z2B2z2 | 
[V:3] z2G2z2 | 
[V:4] z2E2z2 | 
[V:1] z> b a z/ f/ g z/ g/ | 
[V:2] z2B2B z/ B/ | 
[V:3] z2G2G z/ G/ | 
[V:4] z2E2E z/ E,/ | 
[V:1] g z/ g/ f z/ d/ e z/ [e/e'/] | 
[V:2] B z/ B/ c z/ A/ E z/ [G/e/] | 
[V:3] E z/ E/ C z/ A/ G z/ [E,/G,/] | 
[V:4] E, z/ E,/ A,, z/ B,,/ E, z/ E,/ | 
[V:1] [e2e'2]E zz2 |]  
[V:2] [G2e2]E zz2 |]  
[V:3] [E,2G,2][E,G,] zz2 |]  
[V:4] E,,2E,, zz2 |]  


